X: 35457
T: Rowers Go Berserk
R: polka
M: 2/4
K: Amixolydian
Ac/d/ ed/e/|Aa gf/e/|d>e fe|cA/c/ B2|
Ac/d/ ed/e/|Aa gf/e/|d>e fe|Ac B2:|
|:=c>c AA|EA/=c/ dc/B/|=c>e aa|ba/^g/ a2|
=c>e gg|fd/f/ ag/f/|ea =c2|BG/B/ d=c/B/|=ce A2:|
|:A2 cd|e2 g2|f2 ed|f2 e2|A2 cd|e2 g2|f2 ed|z(=c c2):|
|:d>d d=c|e=c A2|d>e d=c|B2 A2|d2 d=c|e2 e=c|B2 A2|A4:|

